X:1
T:Field Club, 87.87 D
T:Field Club, 87.87 D
T:Benjamin S. Dise, 1893
T:Public Domain Courtesy of the Cyber Hymnal™
C:Benjamin S. Dise, 1893
Z:Public Domain
Z:Courtesy of the Cyber Hymnal™
%%score ( 1 2 ) ( 3 4 )
L:1/8
Q:1/4=107
M:4/4
K:F
V:1 treble 
V:2 treble 
V:3 bass 
V:4 bass 
V:1
 [FA]2 F2 [FA]2 F2 | [FA]2 [Fc]2 [FA]2 [EG]2 | [GB]2 [EG]2 [GB]2 [EG]2 | [FA]2 [Fd]2 [Fc]4 | %4
 [FA]2 F2 [FA]2 F2 | [FA]2 [Fc]2 [FA]2 [EG]2 | [FA]2 [FA]2 [EG]2 [EG]2 | [F=B]2 [FB]2 [Ec]4 | %8
 [GB]2 [GB]2 [FA]2 [EG]2 | [FA]2 [Fd]2 [Fc]2 [FA]2 | [FA]2 [Fc]2 [Fd]2 [Fc]2 | [EB]2 [FA]2 [EG]4 | %12
 [FA]2 F2 [FA]2 F2 | [FA]2 [Fc]2 [FA]2 [EG]2 | [FA]2 [Fc]2 [DB]2 [DG]2 | [CF]2 [CE]2 [CF]8 |] %16
V:2
 x2 F2 F2 x2 | x8 | x8 | x8 | x2 F2 F2 x2 | x8 | x8 | x8 | x8 | x8 | x8 | x8 | x2 F2 F2 x2 | x8 | %14
 x8 | x12 |] %16
V:3
 [F,C]2 [F,A,]2 [F,C]2 [F,A,]2 | [F,C]2 [F,A,]2 [C,C]2 [C,C]2 | [C,C]2 [C,C]2 [C,C]2 [C,C]2 | %3
 [F,C]2 [F,B,]2 [F,A,]4 | [F,C]2 [F,A,]2 [F,C]2 [F,A,]2 | [F,C]2 [F,A,]2 [C,C]2 [C,C]2 | %6
 [F,C]2 [F,C]2 [F,C]2 [F,C]2 | [G,,D]2 [G,,G,]2 [C,G,]4 | [C,C]2 [C,C]2 [C,C]2 [C,C]2 | %9
 [F,C]2 [F,B,]2 [F,A,]2 [F,C]2 | [F,C]2 [F,A,]2 B,2 [A,C]2 | [G,C]2 [F,C]2 [C,C]4 | %12
 [F,C]2 [F,A,]2 [F,C]2 [F,A,]2 | [F,C]2 [F,A,]2 [C,C]2 [C,C]2 | [F,C]2 [F,A,]2 [B,,B,]2 [B,,B,]2 | %15
 [C,A,]2 [C,G,]2 [F,A,]8 |] %16
V:4
 x8 | x8 | x8 | x8 | x8 | x8 | x8 | x8 | x8 | x8 | x4 B,2 x2 | x8 | x8 | x8 | x8 | x12 |] %16

